!!!OTL: Lindenschmid
!!!ARE: Europa, Mitteleuropa, Deutschland
!!!SCT: A0377B
!!!YEM: Copyright 1995, estate of Helmut Schaffrath.
**kern
*ICvox
*Ivox
*M3/2
*k[]
*a:
{2a
2a
2a
=1
1a
2gn
=2
1ccn
2b
=3
1.ccn}
=4
{2b
2a
2a
=5
1dd
2dd
=6
1a
2b
=7
1a}
{2a
=8
1dd
2dd
=9
1b
2a
=10
2.gn
4a
2b
=11
1.gn}
=12
{2gn
2ccn
2dd
=13
1ee
2dd
=14
1ccn
2b
=15
1.ccn}
=16
{2b
2a
2a
=17
2.e
4f#
2g#
=18
2a
1b
=19
1.a}
==
!!!AGN: Romanze, Ballade, Lied, Personenlied
!! Werlin 1646 hs. Sammlung S. 1589.
!!!ONB: ESAC (Essen Associative Code) Database: ALTDEU
!!!AMT: simple triple
!!!AIN: vox
!!!EED: Helmut Schaffrath
!!!EEV: 1.0
*-
